X:516
T: "Der Kuss"
N: Z1196
O: Europa, Mitteleuropa, Deutschland, Bayern; Tirol
R: Liebes - Lied
M: 3/4
L: 1/8
K: E
 | B2GEcB | B2AFDB,
B2cBAB | G2
B2e2 | B2GEcB | B2AFDB,
B2cBAB | G4
GF | E3DE2 | F3c
B2 | B3AF2 | E4
cB | B3DE2 | F3c
B2 | B4AF | E6

